img/icons/icon-payment.svg

<svg width="70" height="52" viewBox="0 0 70 52" fill="none" xmlns="http://www.w3.org/2000/svg">
<path d="M22.0023 14.733H10.2449C8.82707 14.733 7.67354 15.8865 7.67354 17.3043V26.5864C7.67354 28.0042 8.82707 29.1577 10.2449 29.1577H22.0021C23.4199 29.1577 24.5735 28.0042 24.5735 26.5864V17.3043C24.5735 15.8865 23.4201 14.733 22.0023 14.733ZM22.5248 17.3043V20.921H17.1478V16.7815H22.0021C22.2904 16.7817 22.5248 17.0162 22.5248 17.3043ZM9.7222 26.5864V17.3043C9.7222 17.0162 9.9567 16.7817 10.2449 16.7817H15.0991V27.1091H10.2449C9.9567 27.1091 9.7222 26.8746 9.7222 26.5864ZM22.0023 27.1091H17.1479V22.9697H22.5249V26.5863C22.5248 26.8746 22.2904 27.1091 22.0023 27.1091Z" fill="#AE7C78"/>
<path d="M7.67354 40.9919C7.67354 41.5577 8.13216 42.0162 8.69787 42.0162H38.8407C39.4064 42.0162 39.8651 41.5577 39.8651 40.9919C39.8651 40.426 39.4064 39.9676 38.8407 39.9676H8.69787C8.13216 39.9676 7.67354 40.426 7.67354 40.9919Z" fill="#AE7C78"/>
<path d="M8.69785 43.8689C8.13215 43.8689 7.67352 44.3274 7.67352 44.8933C7.67352 45.4592 8.13215 45.9177 8.69785 45.9177H23.7693C24.335 45.9177 24.7936 45.4592 24.7936 44.8933C24.7936 44.3274 24.335 43.8689 23.7693 43.8689H8.69785Z" fill="#AE7C78"/>
<path d="M26.889 36.105V33.6286C26.889 33.0627 26.4304 32.6042 25.8647 32.6042C25.299 32.6042 24.8404 33.0627 24.8404 33.6286V36.105C24.8404 36.6708 25.299 37.1293 25.8647 37.1293C26.4304 37.1293 26.889 36.6708 26.889 36.105Z" fill="#AE7C78"/>
<path d="M31.5711 36.105V33.6286C31.5711 33.0627 31.1124 32.6042 30.5467 32.6042C29.981 32.6042 29.5224 33.0627 29.5224 33.6286V36.105C29.5224 36.6708 29.981 37.1293 30.5467 37.1293C31.1124 37.1293 31.5711 36.6708 31.5711 36.105Z" fill="#AE7C78"/>
<path d="M36.2528 36.105V33.6286C36.2528 33.0627 35.7942 32.6042 35.2285 32.6042C34.6628 32.6042 34.2042 33.0627 34.2042 33.6286V36.105C34.2042 36.6708 34.6628 37.1293 35.2285 37.1293C35.7942 37.1293 36.2528 36.6708 36.2528 36.105Z" fill="#AE7C78"/>
<path d="M40.9348 36.105V33.6286C40.9348 33.0627 40.4761 32.6042 39.9104 32.6042C39.3447 32.6042 38.8861 33.0627 38.8861 33.6286V36.105C38.8861 36.6708 39.3447 37.1293 39.9104 37.1293C40.4761 37.1293 40.9348 36.6708 40.9348 36.105Z" fill="#AE7C78"/>
<path d="M46.6891 33.6286V36.105C46.6891 36.6708 47.1478 37.1293 47.7135 37.1293C48.2792 37.1293 48.7378 36.6708 48.7378 36.105V33.6286C48.7378 33.0627 48.2792 32.6042 47.7135 32.6042C47.1478 32.6042 46.6891 33.0629 46.6891 33.6286Z" fill="#AE7C78"/>
<path d="M51.371 33.6286V36.105C51.371 36.6708 51.8297 37.1293 52.3954 37.1293C52.9611 37.1293 53.4197 36.6708 53.4197 36.105V33.6286C53.4197 33.0627 52.9611 32.6042 52.3954 32.6042C51.8297 32.6042 51.371 33.0629 51.371 33.6286Z" fill="#AE7C78"/>
<path d="M56.0529 33.6286V36.105C56.0529 36.6708 56.5116 37.1293 57.0773 37.1293C57.643 37.1293 58.1016 36.6708 58.1016 36.105V33.6286C58.1016 33.0627 57.643 32.6042 57.0773 32.6042C56.5116 32.6042 56.0529 33.0629 56.0529 33.6286Z" fill="#AE7C78"/>
<path d="M8.69787 37.1293C9.26357 37.1293 9.7222 36.6708 9.7222 36.105V33.6286C9.7222 33.0627 9.26357 32.6042 8.69787 32.6042C8.13216 32.6042 7.67354 33.0627 7.67354 33.6286V36.105C7.67354 36.6708 8.13216 37.1293 8.69787 37.1293Z" fill="#AE7C78"/>
<path d="M14.4041 36.105V33.6286C14.4041 33.0627 13.9455 32.6042 13.3798 32.6042C12.8141 32.6042 12.3554 33.0627 12.3554 33.6286V36.105C12.3554 36.6708 12.8141 37.1293 13.3798 37.1293C13.9455 37.1293 14.4041 36.6708 14.4041 36.105Z" fill="#AE7C78"/>
<path d="M19.086 36.105V33.6286C19.086 33.0627 18.6274 32.6042 18.0617 32.6042C17.496 32.6042 17.0373 33.0627 17.0373 33.6286V36.105C17.0373 36.6708 17.496 37.1293 18.0617 37.1293C18.6274 37.1293 19.086 36.6708 19.086 36.105Z" fill="#AE7C78"/>
<path d="M69.9276 10.4064C69.9276 4.66822 65.2593 0 59.5212 0C54.3817 0 50.1034 3.74605 49.2661 8.65055H22.7606C22.1949 8.65055 21.7363 9.10904 21.7363 9.67488C21.7363 10.2407 22.1949 10.6992 22.7606 10.6992H49.119C49.2756 16.3384 53.9299 20.8106 59.5173 20.8127C59.5186 20.8127 59.5199 20.8128 59.5212 20.8128C59.5226 20.8128 59.5212 20.8128 59.5212 20.8128C59.5223 20.8128 59.5234 20.8127 59.5246 20.8127C61.021 20.8121 62.4717 20.483 63.7266 19.9278V37.1539C63.7266 37.7197 64.1852 38.1782 64.7509 38.1782C65.3166 38.1782 65.7752 37.7197 65.7752 37.1539V18.7177C68.2952 16.8168 69.9276 13.7988 69.9276 10.4064ZM59.5212 2.04866C64.1298 2.04866 67.8789 5.79799 67.8789 10.4064C67.8789 15.0237 64.1191 18.764 59.5212 18.764C54.8226 18.764 50.9802 14.8531 51.1721 10.0678C51.3865 5.46515 55.146 2.04866 59.5212 2.04866Z" fill="#AE7C78"/>
<path d="M56.6877 14.3487C57.0344 14.9106 57.8157 15.0029 58.2837 14.5351L64.9091 7.90961C65.3091 7.50944 65.3091 6.86097 64.9091 6.46093C64.509 6.06104 63.8604 6.06104 63.4605 6.46093L57.7509 12.1707L55.5417 8.59072C55.2447 8.10929 54.6135 7.96001 54.132 8.25692C53.6506 8.55412 53.5012 9.18524 53.7983 9.66654L56.6877 14.3487Z" fill="#AE7C78"/>
<path d="M64.7508 40.9097C64.1851 40.9097 63.7265 41.3682 63.7265 41.934V46.1586C63.7265 48.25 62.025 49.9515 59.9335 49.9515H5.84168C3.75014 49.9515 2.04866 48.25 2.04866 46.1586V14.4923C2.04866 12.4009 3.75014 10.6993 5.84168 10.6993H17.9804C18.5461 10.6993 19.0047 10.2408 19.0047 9.67496C19.0047 9.10912 18.5461 8.65063 17.9804 8.65063H5.84168C2.62064 8.65063 0 11.2711 0 14.4923V46.1585C0 49.3795 2.62064 52 5.84168 52H59.9335C63.1545 52 65.7751 49.3794 65.7751 46.1585V41.9339C65.7751 41.3682 65.3165 40.9097 64.7508 40.9097Z" fill="#AE7C78"/>
<path d="M59.3408 27.5829V24.5548C59.3408 23.6866 58.6342 22.9801 57.7659 22.9801H47.3054C46.4371 22.9801 45.7306 23.6866 45.7306 24.5548V27.5829C45.7306 28.4512 46.4371 29.1577 47.3054 29.1577H57.7659C58.6342 29.1577 59.3408 28.4512 59.3408 27.5829ZM57.2921 27.1091H47.7791V25.0287H57.2921V27.1091Z" fill="#AE7C78"/>
</svg>

<svg width="70" height="52" fill="none" xmlns="http://www.w3.org/2000/svg"><path d="M22.002 14.733H10.245a2.574 2.574 0 00-2.571 2.571v9.282a2.574 2.574 0 002.57 2.572h11.758a2.574 2.574 0 002.572-2.572v-9.282a2.574 2.574 0 00-2.572-2.571zm.523 2.571v3.617h-5.377v-4.14h4.854c.288 0 .523.235.523.523zM9.722 26.586v-9.282c0-.288.235-.522.523-.522h4.854v10.327h-4.854a.523.523 0 01-.523-.523zm12.28.523h-4.854v-4.14h5.377v3.617a.523.523 0 01-.523.523zM7.674 40.992c0 .566.458 1.024 1.024 1.024H38.84a1.024 1.024 0 100-2.048H8.698c-.566 0-1.024.458-1.024 1.024zM8.698 43.869a1.024 1.024 0 100 2.049h15.071a1.024 1.024 0 100-2.05H8.698zM26.889 36.105v-2.476a1.024 1.024 0 10-2.049 0v2.476a1.024 1.024 0 102.049 0zM31.571 36.105v-2.476a1.024 1.024 0 10-2.049 0v2.476a1.024 1.024 0 102.05 0zM36.253 36.105v-2.476a1.024 1.024 0 10-2.049 0v2.476a1.024 1.024 0 102.049 0zM40.935 36.105v-2.476a1.024 1.024 0 10-2.049 0v2.476a1.024 1.024 0 102.049 0zM46.69 33.629v2.476a1.024 1.024 0 002.048 0v-2.476a1.024 1.024 0 10-2.049 0zM51.371 33.629v2.476a1.024 1.024 0 002.049 0v-2.476a1.024 1.024 0 10-2.049 0zM56.053 33.629v2.476a1.024 1.024 0 002.049 0v-2.476a1.024 1.024 0 10-2.05 0zM8.698 37.13c.566 0 1.024-.46 1.024-1.025v-2.476a1.024 1.024 0 10-2.048 0v2.476c0 .566.458 1.024 1.024 1.024zM14.404 36.105v-2.476a1.024 1.024 0 10-2.049 0v2.476a1.024 1.024 0 002.05 0zM19.086 36.105v-2.476a1.024 1.024 0 10-2.049 0v2.476a1.024 1.024 0 002.049 0z" fill="#AE7C78"/><path d="M69.928 10.406C69.928 4.668 65.259 0 59.52 0c-5.14 0-9.418 3.746-10.255 8.65H22.761a1.024 1.024 0 100 2.05h26.358c.157 5.638 4.81 10.11 10.398 10.113h.004c.002 0 0 0 0 0h.004c1.496 0 2.947-.33 4.202-.885v17.226a1.024 1.024 0 102.048 0V18.718a10.396 10.396 0 004.153-8.312zM59.52 2.05c4.609 0 8.358 3.749 8.358 8.357 0 4.618-3.76 8.358-8.358 8.358-4.698 0-8.54-3.91-8.349-8.696a8.365 8.365 0 018.35-8.02z" fill="#AE7C78"/><path d="M56.688 14.349a1.024 1.024 0 001.596.186l6.625-6.625a1.024 1.024 0 00-1.449-1.45l-5.71 5.71-2.208-3.58a1.025 1.025 0 00-1.744 1.077l2.89 4.682zM64.75 40.91c-.565 0-1.023.458-1.023 1.024v4.225a3.797 3.797 0 01-3.793 3.793H5.842a3.797 3.797 0 01-3.793-3.793V14.492A3.797 3.797 0 015.842 10.7H17.98a1.024 1.024 0 100-2.048H5.842A5.848 5.848 0 000 14.492v31.666A5.848 5.848 0 005.842 52h54.091a5.848 5.848 0 005.842-5.842v-4.224c0-.566-.459-1.024-1.024-1.024z" fill="#AE7C78"/><path d="M59.34 27.583v-3.028c0-.868-.706-1.575-1.574-1.575h-10.46c-.869 0-1.575.707-1.575 1.575v3.028c0 .868.706 1.575 1.574 1.575h10.46c.87 0 1.576-.707 1.576-1.575zm-2.048-.474H47.78v-2.08h9.513v2.08z" fill="#AE7C78"/></svg>
